X: 20659
T: John Thomas's Hornpipe
R: three-two
M: 3/2
K: Dmixolydian
A2 d2 d2 e2 c2 A2|A2 d2 d2 d2 ef g2|A2 d2 d2 e2 c2 A2|cd e2 e2 f2 c2 e2|
A2 d2 d2 e2 c2 A2|A2 d2 d2 d2 ef g2|A2 d2 d2 e2 c2 A2|cd e2 e2 f2 d4|
f2 a2 a2 gf e2 d2|A2 d2 d2 e2 f4|f2 a2 a2 gf e2 d2|cd e2 e2 f2 c2 e2|
f2 a2 a2 gf e2 d2|A2 d2 d2 e2 f2 g2|ag f2 gf e2 fe d2|cd e2 e2 f2 d4||

